**kern	**silbe	**harmony	**phrase	**leadinstrument	**rhyme	**timestamp	**harte
*ICvox	*	*M3/4	*	*	*	*	*M3/4
*VRlead	*	*	*	*	*	*	*
*Hstimme	*	*	*	*	*	*	*
*D:	*	*D:	*	*	*	*	*D:
*M3/4	*	*	*	*	*	*	*
*clefF4	*	*	*	*	*	*	*
r;	.	1r;	.	r	.	0	N.C.
=1	=1	=1	=1	=1	=1	=1	=1
*>Letter>C	*>Letter>C	*>Letter>C	*>Letter>C	*>Letter>C	*>Letter>C	*>Letter>C	*>Letter>C
*>Label>Intro	*>Label>Intro	*>Label>Intro	*>Label>Intro	*>Label>Intro	*>Label>Intro	*>Label>Intro	*>Label>Intro
2.r	.	2.DM	newline	guitar	.	0.302	D:maj
=2	=2	=2	=2	=2	=2	=2	=2
2.r	.	2.DM	.	guitar	.	1.432	D:maj/7
=3	=3	=3	=3	=3	=3	=3	=3
2.r	.	2.DM	.	guitar	.	2.561	D:maj/6
=4	=4	=4	=4	=4	=4	=4	=4
4r	.	2.DM	.	guitar	.	3.691	D:maj/5
4r	.	.	.	.	.	.	.
8r	.	.	.	.	.	.	.
8AA	I	.	.	.	.	.	.
=5	=5	=5	=5	=5	=5	=5	=5
*>Letter>A	*>Letter>A	*>Letter>A	*>Letter>A	*>Letter>A	*>Letter>A	*>Letter>A	*>Letter>A
*>Label>Verse	*>Label>Verse	*>Label>Verse	*>Label>Verse	*>Label>Verse	*>Label>Verse	*>Label>Verse	*>Label>Verse
8F#	knew	2.DM	newline	voice	.	9.208	D:maj
8E	a	.	.	.	.	.	.
4F#	man,	.	.	.	.	.	.
8E	Bo-	.	.	.	.	.	.
[8F#	-jan	.	.	.	.	.	.
=6	=6	=6	=6	=6	=6	=6	=6
8F#]	_	2.DM	.	voice	.	10.311	D:maj/7
8E	gles	.	.	.	.	.	.
4F#	and	.	.	.	.	.	.
8E	he	.	.	.	.	.	.
[8F#	danced	.	.	.	.	.	.
=7	=7	=7	=7	=7	=7	=7	=7
4F#]	_	2.DM	.	voice	.	11.414	D:maj/6
8E	for	.	.	.	.	.	.
[8D	you	.	.	.	A	.	.
4D]	.	.	.	.	.	.	.
=8	=8	=8	=8	=8	=8	=8	=8
2.r	.	2.DM	.	voice	.	12.516	D:maj/5
=9	=9	=9	=9	=9	=9	=9	=9
4r	.	2.GM	newline	voice	.	13.619	G:maj
4r	.	.	.	.	.	.	.
8r	.	.	.	.	.	.	.
8~GG	in	.	.	.	.	.	.
=10	=10	=10	=10	=10	=10	=10	=10
4B	worn-	2.GM	.	voice	.	14.744	G:maj
2A	-out	.	.	.	.	.	.
=11	=11	=11	=11	=11	=11	=11	=11
2.A	shoes	2.AM	.	voice	A	15.869	A:maj
=12	=12	=12	=12	=12	=12	=12	=12
4r	.	2.AM	.	voice	.	16.994	A:maj
4r	.	.	.	.	.	.	.
8r	.	.	.	.	.	.	.
8AA	The	.	.	.	.	.	.
=13	=13	=13	=13	=13	=13	=13	=13
8F#	sil-	2.DM	newline	voice	.	18.119	D:maj
8E	-ver	.	.	.	.	.	.
4F#	hair,	.	.	.	.	.	.
8E	a	.	.	.	.	.	.
[8F#	rag	.	.	.	(B	.	.
=14	=14	=14	=14	=14	=14	=14	=14
8F#]	_	2.DM	.	voice	.	19.202	D:maj/7
8E	ged	.	.	.	b)	.	.
4F#	shirt	.	.	.	.	.	.
8E	and	.	.	.	.	.	.
[8F#	bag	.	.	.	(B	.	.
=15	=15	=15	=15	=15	=15	=15	=15
8F#]	_	2.DM	.	voice	.	20.286	D:maj/6
8E	gy	.	.	.	b)	.	.
2D	pants,	.	.	.	C	.	.
=16	=16	=16	=16	=16	=16	=16	=16
2.r	.	2.DM	.	voice	.	21.37	D:maj/5
=17	=17	=17	=17	=17	=17	=17	=17
4r	.	2.GM	newline	voice	.	22.453	G:maj
4r	.	.	.	.	.	.	.
8r	.	.	.	.	.	.	.
8~GG	the	.	.	.	.	.	.
=18	=18	=18	=18	=18	=18	=18	=18
2B	old	2.GM	.	voice	.	23.553	G:maj
4A	soft	.	.	.	.	.	.
=19	=19	=19	=19	=19	=19	=19	=19
2.A	shoe.	2.AM	.	voice	A	24.653	A:maj
=20	=20	=20	=20	=20	=20	=20	=20
2.r	.	2.AM	.	voice	.	25.752	A:maj
=21	=21	=21	=21	=21	=21	=21	=21
4r	.	2.GM	newline	voice	.	26.852	G:maj
4r	.	.	.	.	.	.	.
8r	.	.	.	.	.	.	.
8GG	He	.	.	.	.	.	.
=22	=22	=22	=22	=22	=22	=22	=22
4B	jumped	2.GM	.	voice	.	27.949	G:maj
8Bq	_	.	.	.	.	.	.
2c#	so	.	.	.	.	.	.
=23	=23	=23	=23	=23	=23	=23	=23
[2.A	high,	2.DM	.	voice	.	29.046	D:maj
=24	=24	=24	=24	=24	=24	=24	=24
4A]	_	2.F#M	.	voice	.	30.143	F#:maj
4F#	jumped	.	.	.	.	.	.
8E	so	.	.	.	.	.	.
[8D	high,	.	.	.	.	.	.
=25	=25	=25	=25	=25	=25	=25	=25
2.D]	_	2.Bm	newline	voice	.	31.24	B:min
=26	=26	=26	=26	=26	=26	=26	=26
2.r	.	2.Bm	.	voice	.	32.335	B:min/b7
=27	=27	=27	=27	=27	=27	=27	=27
4r	.	2.EMm	.	voice	.	33.43	E:9/3
4r	.	.	.	.	.	.	.
8F#	then	.	.	.	.	.	.
8F#	he'd	.	.	.	.	.	.
=28	=28	=28	=28	=28	=28	=28	=28
4F#	light-	2.EMm	.	voice	.	34.525	E:9
8E	-ly	.	.	.	.	.	.
8D	touch	.	.	.	.	.	.
8r	.	.	.	.	.	.	.
[8E	down	.	.	.	.	.	.
=29	=29	=29	=29	=29	=29	=29	=29
2.E]	.	2.AM	newline	voice	.	35.62	A:maj
=30	=30	=30	=30	=30	=30	=30	=30
2.r	.	2.AM	.	voice	.	36.683	A:maj
=31	=31	=31	=31	=31	=31	=31	=31
2.r	.	2.AM	.	voice	.	37.746	A:maj
=32	=32	=32	=32	=32	=32	=32	=32
2.r	.	2.AM	.	voice	.	38.809	A:maj
=33	=33	=33	=33	=33	=33	=33	=33
*>Letter>B	*>Letter>B	*>Letter>B	*>Letter>B	*>Letter>B	*>Letter>B	*>Letter>B	*>Letter>B
*>Label>Chorus	*>Label>Chorus	*>Label>Chorus	*>Label>Chorus	*>Label>Chorus	*>Label>Chorus	*>Label>Chorus	*>Label>Chorus
2.r	.	2.Bm	newline	voice	.	39.872	B:min
=34	=34	=34	=34	=34	=34	=34	=34
8B	Mis-	2.Bm	.	voice	.	40.966	B:min
8~A	-ter	.	.	.	.	.	.
8Bq	_	.	.	.	.	.	.
2c#	Bo-	.	.	.	.	.	.
=35	=35	=35	=35	=35	=35	=35	=35
8A	-jan	2.AM	.	voice	.	42.06	A:maj
8F#	_	.	.	.	.	.	.
[2E	gles	.	.	.	.	.	.
=36	=36	=36	=36	=36	=36	=36	=36
4E]	.	2.AM	.	voice	.	43.153	A:maj
4r	.	.	.	.	.	.	.
4r	.	.	.	.	.	.	.
=37	=37	=37	=37	=37	=37	=37	=37
2.r	.	2.Bm	newline	voice	.	44.247	B:min
=38	=38	=38	=38	=38	=38	=38	=38
8B	Mis-	2.Bm	.	voice	.	45.321	B:min
8~A	-ter	.	.	.	.	.	.
8Bq	_	.	.	.	.	.	.
2c#	Bo-	.	.	.	.	.	.
=39	=39	=39	=39	=39	=39	=39	=39
8A	-jan	2.AM	.	voice	.	46.395	A:maj
8F#	_	.	.	.	.	.	.
[2E	gles	.	.	.	.	.	.
=40	=40	=40	=40	=40	=40	=40	=40
4E]	.	2.AM	.	voice	.	47.469	A:maj
4r	.	.	.	.	.	.	.
4r	.	.	.	.	.	.	.
=41	=41	=41	=41	=41	=41	=41	=41
2.r	.	2.Bm	newline	voice	.	48.542	B:min
=42	=42	=42	=42	=42	=42	=42	=42
8B	Mis-	2.Bm	.	voice	.	49.624	B:min
8~A	-ter	.	.	.	.	.	.
8Bq	_	.	.	.	.	.	.
2c#	Bo-	.	.	.	.	.	.
=43	=43	=43	=43	=43	=43	=43	=43
8A	-jan	2.AM	.	voice	.	50.705	A:maj
8F#	_	.	.	.	.	.	.
[2E	gles	.	.	.	.	.	.
=44	=44	=44	=44	=44	=44	=44	=44
4E]	.	2.AM	.	voice	.	51.787	A:maj
4r	.	.	.	.	.	.	.
4r	.	.	.	.	.	.	.
=45	=45	=45	=45	=45	=45	=45	=45
*>Letter>C	*>Letter>C	*>Letter>C	*>Letter>C	*>Letter>C	*>Letter>C	*>Letter>C	*>Letter>C
*>Label>Trans	*>Label>Trans	*>Label>Trans	*>Label>Trans	*>Label>Trans	*>Label>Trans	*>Label>Trans	*>Label>Trans
[2.D	dance	2.DM	newline	guitar	C	52.869	D:maj
=46	=46	=46	=46	=46	=46	=46	=46
4D]	_	2.DM	.	guitar	.	53.96	D:maj/7
4r	.	.	.	.	.	.	.
4r	.	.	.	.	.	.	.
=47	=47	=47	=47	=47	=47	=47	=47
2.r	.	2.DM	.	guitar	.	55.051	D:maj/6
=48	=48	=48	=48	=48	=48	=48	=48
4r	.	2.DM	.	guitar	.	56.143	D:maj/5
4r	.	.	.	.	.	.	.
8r	.	.	.	.	.	.	.
8AA	I	.	.	.	.	.	.
=49	=49	=49	=49	=49	=49	=49	=49
*>Letter>A	*>Letter>A	*>Letter>A	*>Letter>A	*>Letter>A	*>Letter>A	*>Letter>A	*>Letter>A
*>Label>Verse	*>Label>Verse	*>Label>Verse	*>Label>Verse	*>Label>Verse	*>Label>Verse	*>Label>Verse	*>Label>Verse
8F#	met	2.DM	newline	voice	.	57.234	D:maj
8E	him	.	.	.	.	.	.
4F#	in	.	.	.	.	.	.
8E	a	.	.	.	.	.	.
[8F#	cell	.	.	.	.	.	.
=50	=50	=50	=50	=50	=50	=50	=50
8F#]	_	2.DM	.	voice	.	58.33	D:maj/7
8E	in	.	.	.	.	.	.
8F#	New	.	.	.	.	.	.
[8E	Or-	.	.	.	.	.	.
8E]	_	.	.	.	.	.	.
[8F#	-leans,	.	.	.	.	.	.
=51	=51	=51	=51	=51	=51	=51	=51
4F#]	_	2.DM	.	voice	.	59.426	D:maj/6
8E	I	.	.	.	.	.	.
[8D	was	.	.	.	.	.	.
4D]	.	.	.	.	.	.	.
=52	=52	=52	=52	=52	=52	=52	=52
2.r	.	2.DM	.	voice	.	60.522	D:maj/5
=53	=53	=53	=53	=53	=53	=53	=53
2.r	.	2.GM	newline	voice	.	61.618	G:maj
=54	=54	=54	=54	=54	=54	=54	=54
8Aq	_	.	.	.	.	.	.
2B	down	2.GM	.	voice	.	62.71	G:maj
8A	and	.	.	.	.	.	.
[8A	out	.	.	.	.	.	.
=55	=55	=55	=55	=55	=55	=55	=55
2.A]	_	2.AM	.	voice	.	63.802	A:maj
=56	=56	=56	=56	=56	=56	=56	=56
4r	.	2.AM	.	voice	.	64.893	A:maj
4r	.	.	.	.	.	.	.
8r	.	.	.	.	.	.	.
8~C#	He	.	.	.	.	.	.
=57	=57	=57	=57	=57	=57	=57	=57
8F#	looked	2.DM	newline	voice	.	65.985	D:maj
8E	to	.	.	.	.	.	.
4F#	me	.	.	.	.	.	.
8E	to	.	.	.	.	.	.
[8F#	be	.	.	.	.	.	.
=58	=58	=58	=58	=58	=58	=58	=58
2F#]	_	2.DM	.	voice	.	67.088	D:maj/7
8E	the	.	.	.	.	.	.
[8F#	eyes	.	.	.	.	.	.
=59	=59	=59	=59	=59	=59	=59	=59
4F#]	_	2.DM	.	voice	.	68.191	D:maj/6
8E	of	.	.	.	.	.	.
[8D	age	.	.	.	.	.	.
4D]	.	.	.	.	.	.	.
=60	=60	=60	=60	=60	=60	=60	=60
2.r	.	2.DM	.	voice	.	69.294	D:maj/5
=61	=61	=61	=61	=61	=61	=61	=61
4r	.	2.GM	newline	voice	.	70.397	G:maj
4r	.	.	.	.	.	.	.
8GG	as	.	.	.	.	.	.
8~GG	he	.	.	.	.	.	.
=62	=62	=62	=62	=62	=62	=62	=62
2B	spoke	2.GM	.	voice	.	71.489	G:maj
8A	right	.	.	.	.	.	.
[8A	out	.	.	.	.	.	.
=63	=63	=63	=63	=63	=63	=63	=63
2.A]	_	2.AM	.	voice	.	72.581	A:maj
=64	=64	=64	=64	=64	=64	=64	=64
2.r	.	2.AM	.	voice	.	73.673	A:maj
=65	=65	=65	=65	=65	=65	=65	=65
4r	.	2.GM	newline	voice	.	74.766	G:maj
4r	.	.	.	.	.	.	.
8r	.	.	.	.	.	.	.
8~C#	He	.	.	.	.	.	.
=66	=66	=66	=66	=66	=66	=66	=66
4B	talked	2.GM	.	voice	.	75.874	G:maj
8Bq	_	.	.	.	.	.	.
2c#	of	.	.	.	.	.	.
=67	=67	=67	=67	=67	=67	=67	=67
[2.A	life,	2.DM	.	voice	.	76.982	D:maj
=68	=68	=68	=68	=68	=68	=68	=68
4A]	_	2.F#M	.	voice	.	78.09	F#:maj
4F#	talked	.	.	.	.	.	.
8E	of	.	.	.	.	.	.
[8D	life	.	.	.	.	.	.
=69	=69	=69	=69	=69	=69	=69	=69
2.D]	.	2.Bm	newline	voice	.	79.198	B:min
=70	=70	=70	=70	=70	=70	=70	=70
2.r	.	2.Bm	.	voice	.	80.293	B:min/b7
=71	=71	=71	=71	=71	=71	=71	=71
4r	.	2.EMm	.	voice	.	81.389	E:9/3
4r	.	.	.	.	.	.	.
8r	.	.	.	.	.	.	.
8~C#	He	.	.	.	.	.	.
=72	=72	=72	=72	=72	=72	=72	=72
4F#	laughed,	2.EMm	.	voice	.	82.484	E:9
8F#	slapped	.	.	.	.	.	.
8E	his	.	.	.	.	.	.
8E	leg	.	.	.	.	.	.
8D	in-	.	.	.	.	.	.
=73	=73	=73	=73	=73	=73	=73	=73
2.E	-stead...	2.AM	newline	voice	.	83.58	A:maj
=74	=74	=74	=74	=74	=74	=74	=74
2.r	.	2.AM	.	voice	.	84.646	A:maj
=75	=75	=75	=75	=75	=75	=75	=75
2.r	.	2.AM	.	voice	.	85.712	A:maj
=76	=76	=76	=76	=76	=76	=76	=76
4r	.	2.AM	.	voice	.	86.778	A:maj
4r	.	.	.	.	.	.	.
8r	.	.	.	.	.	.	.
8~AA	he	.	.	.	.	.	.
=77	=77	=77	=77	=77	=77	=77	=77
*>Letter>A	*>Letter>A	*>Letter>A	*>Letter>A	*>Letter>A	*>Letter>A	*>Letter>A	*>Letter>A
*>Label>Verse	*>Label>Verse	*>Label>Verse	*>Label>Verse	*>Label>Verse	*>Label>Verse	*>Label>Verse	*>Label>Verse
8F#	said	2.DM	newline	voice	.	87.845	D:maj
8E	the	.	.	.	.	.	.
4F#	name	.	.	.	.	.	.
8E	Bo-	.	.	.	.	.	.
[8F#	-jan	.	.	.	.	.	.
=78	=78	=78	=78	=78	=78	=78	=78
8F#]	_	2.DM	.	voice	.	88.965	D:maj/7
8E	gles	.	.	.	.	.	.
4F#	and	.	.	.	.	.	.
8E	he	.	.	.	.	.	.
[8F#	danced	.	.	.	.	.	.
=79	=79	=79	=79	=79	=79	=79	=79
4F#]	_	2.DM	.	voice	.	90.085	D:maj/6
8E	a	.	.	.	.	.	.
[8D	lick	.	.	.	D	.	.
8D]	_	.	.	.	.	.	.
8r	.	.	.	.	.	.	.
=80	=80	=80	=80	=80	=80	=80	=80
2.r	.	2.DM	.	voice	.	91.205	D:maj/5
=81	=81	=81	=81	=81	=81	=81	=81
2.r	.	2.GM	newline	voice	.	92.325	G:maj
=82	=82	=82	=82	=82	=82	=82	=82
2B	'Cross	2.GM	.	voice	.	93.418	G:maj
8A	the	.	.	.	.	.	.
[8A	cell	.	.	.	E	.	.
=83	=83	=83	=83	=83	=83	=83	=83
2.A]	_	2.AM	.	voice	.	94.51	A:maj
=84	=84	=84	=84	=84	=84	=84	=84
4r	.	2.AM	.	voice	.	95.603	A:maj
4r	.	.	.	.	.	.	.
8r	.	.	.	.	.	.	.
8~C#	He	.	.	.	.	.	.
=85	=85	=85	=85	=85	=85	=85	=85
8F#	grabbed	2.DM	newline	voice	.	96.695	D:maj
8E	his	.	.	.	.	.	.
4F#	pants	.	.	.	.	.	.
8E	for	.	.	.	.	.	.
8F#	bet-	.	.	.	.	.	.
=86	=86	=86	=86	=86	=86	=86	=86
8E	-ter	2.DM	.	voice	.	97.773	D:maj/7
4F#	stance,	.	.	.	C	.	.
8E	ooh,	.	.	.	.	.	.
8F#	_	.	.	.	.	.	.
8E	he	.	.	.	.	.	.
=87	=87	=87	=87	=87	=87	=87	=87
4F#	jumped	2.DM	.	voice	.	98.852	D:maj/6
8E	so	.	.	.	.	.	.
[8D	high	.	.	.	.	.	.
4D]	.	.	.	.	.	.	.
=88	=88	=88	=88	=88	=88	=88	=88
2.r	.	2.DM	.	voice	.	99.93	D:maj/5
=89	=89	=89	=89	=89	=89	=89	=89
4r	.	2.GM	newline	voice	.	101.008	G:maj
4r	.	.	.	.	.	.	.
8r	.	.	.	.	.	.	.
8~GG	he	.	.	.	.	.	.
=90	=90	=90	=90	=90	=90	=90	=90
4B	clicked	2.GM	.	voice	D	102.088	G:maj
2A	his	.	.	.	.	.	.
=91	=91	=91	=91	=91	=91	=91	=91
2.A	heels.	2.AM	.	voice	E	103.168	A:maj
=92	=92	=92	=92	=92	=92	=92	=92
2.r	.	2.AM	.	voice	.	104.248	A:maj
=93	=93	=93	=93	=93	=93	=93	=93
4r	.	2.GM	newline	voice	.	105.328	G:maj
4r	.	.	.	.	.	.	.
8r	.	.	.	.	.	.	.
8D	He	.	.	.	.	.	.
=94	=94	=94	=94	=94	=94	=94	=94
4B	let	2.GM	.	voice	.	106.42	G:maj
4B	go	.	.	.	.	.	.
8~g	a	.	.	.	.	.	.
[8A	laugh,	.	.	.	.	.	.
=95	=95	=95	=95	=95	=95	=95	=95
2A_	_	2.DM	.	voice	.	107.513	D:maj
8A]	_	.	.	.	.	.	.
8E	he	.	.	.	.	.	.
=96	=96	=96	=96	=96	=96	=96	=96
4F#	let	2.F#M	.	voice	.	108.606	F#:maj
4F#	go	.	.	.	.	.	.
8E	a	.	.	.	.	.	.
[8D	laugh	.	.	.	.	.	.
=97	=97	=97	=97	=97	=97	=97	=97
2D]	.	2.Bm	newline	voice	.	109.698	B:min
4r	.	.	.	.	.	.	.
=98	=98	=98	=98	=98	=98	=98	=98
2.r	.	2.Bm	.	voice	.	110.792	B:min/b7
=99	=99	=99	=99	=99	=99	=99	=99
8.r	.	2.EMm	.	voice	.	111.886	E:9/3
8.r	.	.	.	.	.	.	.
16.r	.	.	.	.	.	.	.
8.F#	shook	.	.	.	.	.	.
[16.F#	back	.	.	.	.	.	.
=100	=100	=100	=100	=100	=100	=100	=100
16.F#]	_	2.EMm	.	voice	.	112.98	E:9
8.F#	his	.	.	.	.	.	.
[16.F#	clothes	.	.	.	.	.	.
8F#]	_	.	.	.	.	.	.
8E	all	.	.	.	.	.	.
8D	a-	.	.	.	.	.	.
=101	=101	=101	=101	=101	=101	=101	=101
2.E	-round.	2.AM	newline	voice	.	114.073	A:maj
=102	=102	=102	=102	=102	=102	=102	=102
2.r	.	2.AM	.	voice	.	115.137	A:maj
=103	=103	=103	=103	=103	=103	=103	=103
2.r	.	2.AM	.	voice	.	116.201	A:maj
=104	=104	=104	=104	=104	=104	=104	=104
2.r	.	2.AM	.	voice	.	117.265	A:maj
=105	=105	=105	=105	=105	=105	=105	=105
*>Letter>B	*>Letter>B	*>Letter>B	*>Letter>B	*>Letter>B	*>Letter>B	*>Letter>B	*>Letter>B
*>Label>Chorus	*>Label>Chorus	*>Label>Chorus	*>Label>Chorus	*>Label>Chorus	*>Label>Chorus	*>Label>Chorus	*>Label>Chorus
2.r	.	2.Bm	newline	voice	.	118.329	B:min
=106	=106	=106	=106	=106	=106	=106	=106
8B	Mis-	2.Bm	.	voice	.	119.413	B:min
8~A	-ter	.	.	.	.	.	.
8Bq	_	.	.	.	.	.	.
2c#	Bo-	.	.	.	.	.	.
=107	=107	=107	=107	=107	=107	=107	=107
8A	-jan	2.AM	.	voice	.	120.497	A:maj
8F#	_	.	.	.	.	.	.
[2E	gles	.	.	.	.	.	.
=108	=108	=108	=108	=108	=108	=108	=108
4E]	.	2.AM	.	voice	.	121.581	A:maj
4r	.	.	.	.	.	.	.
4r	.	.	.	.	.	.	.
=109	=109	=109	=109	=109	=109	=109	=109
2.r	.	2.Bm	newline	voice	.	122.665	B:min
=110	=110	=110	=110	=110	=110	=110	=110
8B	Mis-	2.Bm	.	voice	.	123.75	B:min
8~A	-ter	.	.	.	.	.	.
8Bq	_	.	.	.	.	.	.
2c#	Bo-	.	.	.	.	.	.
=111	=111	=111	=111	=111	=111	=111	=111
8A	-jan	2.AM	.	voice	.	124.836	A:maj
8F#	_	.	.	.	.	.	.
2E	gles...	.	.	.	.	.	.
=112	=112	=112	=112	=112	=112	=112	=112
2.r	.	2.AM	.	voice	.	125.922	A:maj
=113	=113	=113	=113	=113	=113	=113	=113
2.r	.	2.Bm	newline	voice	.	127.008	B:min
=114	=114	=114	=114	=114	=114	=114	=114
8B	Mis-	2.Bm	.	voice	.	128.078	B:min
8~A	-ter	.	.	.	.	.	.
8Bq	_	.	.	.	.	.	.
2c#	Bo-	.	.	.	.	.	.
=115	=115	=115	=115	=115	=115	=115	=115
8A	-jan	2.AM	.	voice	.	129.149	A:maj
8F#	_	.	.	.	.	.	.
[2E	gles	.	.	.	.	.	.
=116	=116	=116	=116	=116	=116	=116	=116
4E]	.	2.AM	.	voice	.	130.22	A:maj
4r	.	.	.	.	.	.	.
4r	.	.	.	.	.	.	.
=117	=117	=117	=117	=117	=117	=117	=117
*>Letter>C	*>Letter>C	*>Letter>C	*>Letter>C	*>Letter>C	*>Letter>C	*>Letter>C	*>Letter>C
*>Label>Trans	*>Label>Trans	*>Label>Trans	*>Label>Trans	*>Label>Trans	*>Label>Trans	*>Label>Trans	*>Label>Trans
[2.D	dance	2.DM	newline	guitar	C	131.29	D:maj
=118	=118	=118	=118	=118	=118	=118	=118
4D]	_	2.DM	.	guitar	.	132.391	D:maj/7
4r	.	.	.	.	.	.	.
4r	.	.	.	.	.	.	.
=119	=119	=119	=119	=119	=119	=119	=119
2.r	.	2.DM	.	guitar	.	133.491	D:maj/6
=120	=120	=120	=120	=120	=120	=120	=120
4r	.	2.DM	.	guitar	.	134.591	D:maj/5
4r	.	.	.	.	.	.	.
8r	.	.	.	.	.	.	.
8~AA	He	.	.	.	.	.	.
=121	=121	=121	=121	=121	=121	=121	=121
*>Letter>A	*>Letter>A	*>Letter>A	*>Letter>A	*>Letter>A	*>Letter>A	*>Letter>A	*>Letter>A
*>Label>Verse	*>Label>Verse	*>Label>Verse	*>Label>Verse	*>Label>Verse	*>Label>Verse	*>Label>Verse	*>Label>Verse
4F#	danced	2.DM	newline	voice	.	135.692	D:maj
8E	for	.	.	.	.	.	.
4F#	those	.	.	.	F	.	.
8E	at	.	.	.	.	.	.
=122	=122	=122	=122	=122	=122	=122	=122
8F#	min-	2.DM	.	voice	.	136.805	D:maj/7
8E	-strel	.	.	.	.	.	.
4F#	shows	.	.	.	F	.	.
8E	and	.	.	.	.	.	.
[8F#	coun	.	.	.	.	.	.
=123	=123	=123	=123	=123	=123	=123	=123
8F#]	_	2.DM	.	voice	.	137.918	D:maj/6
8E	ty	.	.	.	.	.	.
2D	fairs...	.	.	.	.	.	.
=124	=124	=124	=124	=124	=124	=124	=124
2.r	.	2.DM	.	voice	.	139.031	D:maj/5
=125	=125	=125	=125	=125	=125	=125	=125
4r	.	2.GM	newline	voice	.	140.144	G:maj
4r	.	.	.	.	.	.	.
8r	.	.	.	.	.	.	.
8~GG	through-	.	.	.	G	.	.
=126	=126	=126	=126	=126	=126	=126	=126
2B	-out	2.GM	.	voice	.	141.241	G:maj
8A	the	.	.	.	.	.	.
[8A	south	.	.	.	G	.	.
=127	=127	=127	=127	=127	=127	=127	=127
2.A]	_	2.AM	.	voice	.	142.338	A:maj
=128	=128	=128	=128	=128	=128	=128	=128
4r	.	2.AM	.	voice	.	143.434	A:maj
4r	.	.	.	.	.	.	.
8r	.	.	.	.	.	.	.
8~AA	He	.	.	.	.	.	.
=129	=129	=129	=129	=129	=129	=129	=129
8F#	spoke	2.DM	newline	voice	.	144.531	D:maj
8E	with	.	.	.	.	.	.
4F#	tears	.	.	.	H	.	.
8E	of	.	.	.	.	.	.
8F#	fif	.	.	.	.	.	.
=130	=130	=130	=130	=130	=130	=130	=130
8r	.	2.DM	.	voice	.	145.638	D:maj/7
8E	teen	.	.	.	.	.	.
4F#	years	.	.	.	H	.	.
8F#	how	.	.	.	.	.	.
8E	his	.	.	.	.	.	.
=131	=131	=131	=131	=131	=131	=131	=131
4F#	dog	2.DM	.	voice	.	146.745	D:maj/6
8E	and	.	.	.	.	.	.
4.D	him...	.	.	.	.	.	.
=132	=132	=132	=132	=132	=132	=132	=132
2.r	.	2.DM	.	voice	.	147.851	D:maj/5
=133	=133	=133	=133	=133	=133	=133	=133
4r	.	2.GM	newline	voice	.	148.958	G:maj
4r	.	.	.	.	.	.	.
8r	.	.	.	.	.	.	.
8~GG	they	.	.	.	.	.	.
=134	=134	=134	=134	=134	=134	=134	=134
4B	tra-	2.GM	.	voice	.	150.044	G:maj
4B	-velled	.	.	.	.	.	.
8A	a-	.	.	.	.	.	.
[8A	-bout	.	.	.	G	.	.
=135	=135	=135	=135	=135	=135	=135	=135
2.A]	.	2.AM	.	voice	.	151.13	A:maj
=136	=136	=136	=136	=136	=136	=136	=136
2.r	.	2.AM	.	voice	.	152.216	A:maj
=137	=137	=137	=137	=137	=137	=137	=137
4r	.	2.GM	newline	voice	.	153.302	G:maj
4r	.	.	.	.	.	.	.
8r	.	.	.	.	.	.	.
8~GG	His	.	.	.	.	.	.
=138	=138	=138	=138	=138	=138	=138	=138
4B	dog	2.GM	.	voice	.	154.4	G:maj
4B	up	.	.	.	.	.	.
8c#	and	.	.	.	.	.	.
[8A	died,	.	.	.	.	.	.
=139	=139	=139	=139	=139	=139	=139	=139
2.A_	_	2.DM	.	voice	.	155.497	D:maj
=140	=140	=140	=140	=140	=140	=140	=140
8A]	_	2.F#M	.	voice	.	156.595	F#:maj
8F	he	.	.	.	.	.	.
8F#	up	.	.	.	.	.	.
[8E	and	.	.	.	.	.	.
4E]	_	.	.	.	.	.	.
=141	=141	=141	=141	=141	=141	=141	=141
2.D	died.	2.Bm	newline	voice	.	157.693	B:min
=142	=142	=142	=142	=142	=142	=142	=142
2.r	.	2.Bm	.	voice	.	158.791	B:min/b7
=143	=143	=143	=143	=143	=143	=143	=143
4r	.	2.EMm	.	voice	.	159.89	E:9/3
8~GG	Af-	.	.	.	.	.	.
8~GG	-ter	.	.	.	.	.	.
8F#	twen-	.	.	.	.	.	.
8F#	-ty	.	.	.	.	.	.
=144	=144	=144	=144	=144	=144	=144	=144
4F#	years	2.EMm	.	voice	.	160.988	E:9
4E	he	.	.	.	.	.	.
8D	still	.	.	.	.	.	.
[8E	grieves	.	.	.	.	.	.
=145	=145	=145	=145	=145	=145	=145	=145
2.E]	.	2.AM	newline	voice	.	162.087	A:maj
=146	=146	=146	=146	=146	=146	=146	=146
2.r	.	2.AM	.	voice	.	163.164	A:maj
=147	=147	=147	=147	=147	=147	=147	=147
2.r	.	2.AM	.	voice	.	164.242	A:maj
=148	=148	=148	=148	=148	=148	=148	=148
4r	.	2.AM	.	voice	.	165.32	A:maj
4r	.	.	.	.	.	.	.
8r	.	.	.	.	.	.	.
8~AA	He	.	.	.	.	.	.
=149	=149	=149	=149	=149	=149	=149	=149
*>Letter>A	*>Letter>A	*>Letter>A	*>Letter>A	*>Letter>A	*>Letter>A	*>Letter>A	*>Letter>A
*>Label>Verse	*>Label>Verse	*>Label>Verse	*>Label>Verse	*>Label>Verse	*>Label>Verse	*>Label>Verse	*>Label>Verse
8F#	said,	2.DM	newline	voice	.	166.397	D:maj
8E	\\\"I	.	.	.	.	.	.
4F#	dance	.	.	.	C	.	.
8F#	now	.	.	.	.	.	.
8E	at	.	.	.	.	.	.
=150	=150	=150	=150	=150	=150	=150	=150
8F#	ev-	2.DM	.	voice	.	167.502	D:maj/7
8E	-'ry	.	.	.	.	.	.
4F#	chance	.	.	.	C	.	.
8E	and	.	.	.	.	.	.
[8F#	hon	.	.	.	.	.	.
=151	=151	=151	=151	=151	=151	=151	=151
8F#]	_	2.DM	.	voice	.	168.608	D:maj/6
8E	ky	.	.	.	.	.	.
2D	tonk...	.	.	.	.	.	.
=152	=152	=152	=152	=152	=152	=152	=152
2.r	.	2.DM	.	voice	.	169.713	D:maj/5
=153	=153	=153	=153	=153	=153	=153	=153
4r	.	2.GM	newline	voice	.	170.818	G:maj
4r	.	.	.	.	.	.	.
8r	.	.	.	.	.	.	.
8~GG	for	.	.	.	.	.	.
=154	=154	=154	=154	=154	=154	=154	=154
2B	drinks	2.GM	.	voice	.	171.895	G:maj
8A	and	.	.	.	.	.	.
[8A	tips	.	.	.	H	.	.
=155	=155	=155	=155	=155	=155	=155	=155
2A]	_	2.AM	.	voice	.	172.973	A:maj
4r	.	.	.	.	.	.	.
=156	=156	=156	=156	=156	=156	=156	=156
4r	.	2.AM	.	voice	.	174.05	A:maj
4r	.	.	.	.	.	.	.
8r	.	.	.	.	.	.	.
8~BB	But	.	.	.	.	.	.
=157	=157	=157	=157	=157	=157	=157	=157
8F#	most	2.DM	newline	voice	.	175.128	D:maj
8E	the	.	.	.	.	.	.
4F#	time,	.	.	.	I	.	.
8E	I	.	.	.	.	.	.
[8F#	spend	.	.	.	.	.	.
=158	=158	=158	=158	=158	=158	=158	=158
8F#]	_	2.DM	.	voice	.	176.237	D:maj/7
8E	be-	.	.	.	.	.	.
4F#	-hind	.	.	.	I	.	.
8E	these	.	.	.	.	.	.
[8F#	coun	.	.	.	.	.	.
=159	=159	=159	=159	=159	=159	=159	=159
8F#]	_	2.DM	.	voice	.	177.346	D:maj/6
8E	ty	.	.	.	.	.	.
2D	bars...	.	.	.	.	.	.
=160	=160	=160	=160	=160	=160	=160	=160
2.r	.	2.DM	.	voice	.	178.455	D:maj/5
=161	=161	=161	=161	=161	=161	=161	=161
4r	.	2.GM	newline	voice	.	179.564	G:maj
8r	.	.	.	.	.	.	.
8~GG	cuz	.	.	.	.	.	.
8B	I	.	.	.	.	.	.
8~A	can	.	.	.	.	.	.
=162	=162	=162	=162	=162	=162	=162	=162
2B	drinks	2.GM	.	voice	.	180.64	G:maj
8A	a	.	.	.	.	.	.
[8A	bit	.	.	.	H	.	.
=163	=163	=163	=163	=163	=163	=163	=163
2.A]	.\\\"	2.AM	.	voice	.	181.716	A:maj
=164	=164	=164	=164	=164	=164	=164	=164
2.r	.	2.AM	.	voice	.	182.792	A:maj
=165	=165	=165	=165	=165	=165	=165	=165
4r	.	2.GM	newline	voice	.	183.868	G:maj
4r	.	.	.	.	.	.	.
8r	.	.	.	.	.	.	.
8GG	He	.	.	.	.	.	.
=166	=166	=166	=166	=166	=166	=166	=166
8B	shook	2.GM	.	voice	.	184.97	G:maj
8B	his	.	.	.	.	.	.
2c#	_	.	.	.	.	.	.
=167	=167	=167	=167	=167	=167	=167	=167
4A	head,	2.DM	.	voice	.	186.072	D:maj
2F#	_	.	.	.	.	.	.
=168	=168	=168	=168	=168	=168	=168	=168
8.F#	as	2.F#M	.	voice	.	187.174	F#:maj
8.F#	he	.	.	.	.	.	.
8.F#	shook	.	.	.	.	.	.
8.E	his	.	.	.	.	.	.
=169	=169	=169	=169	=169	=169	=169	=169
2.D	head...	2.Bm	newline	voice	.	188.276	B:min
=170	=170	=170	=170	=170	=170	=170	=170
2.r	.	2.Bm	.	voice	.	189.342	B:min/b7
=171	=171	=171	=171	=171	=171	=171	=171
4r	.	2.EMm	.	voice	.	190.408	E:9/3
8r	.	.	.	.	.	.	.
8~GG	I	.	.	.	.	.	.
4F#	heard	.	.	.	.	.	.
=172	=172	=172	=172	=172	=172	=172	=172
8F#	some-	2.EMm	.	voice	.	191.475	E:9
8D	-one	.	.	.	.	.	.
2D	ask,	.	.	.	.	.	.
=173	=173	=173	=173	=173	=173	=173	=173
[2.E	\\\"please	2.AM	newline	voice	.	192.541	A:maj
=174	=174	=174	=174	=174	=174	=174	=174
2E]	...\\\"	2.AM	.	voice	.	193.631	A:maj
4r	.	.	.	.	.	.	.
=175	=175	=175	=175	=175	=175	=175	=175
2.r	.	2.AM	.	voice	.	194.721	A:maj
=176	=176	=176	=176	=176	=176	=176	=176
2.r	.	2.AM	.	voice	.	195.811	A:maj
=177	=177	=177	=177	=177	=177	=177	=177
*>Letter>B	*>Letter>B	*>Letter>B	*>Letter>B	*>Letter>B	*>Letter>B	*>Letter>B	*>Letter>B
*>Label>Chorus	*>Label>Chorus	*>Label>Chorus	*>Label>Chorus	*>Label>Chorus	*>Label>Chorus	*>Label>Chorus	*>Label>Chorus
2.r	.	2.Bm	newline	voice	.	196.901	B:min
=178	=178	=178	=178	=178	=178	=178	=178
8B	Mis-	2.Bm	.	voice	.	197.975	B:min
8~A	-ter	.	.	.	.	.	.
8Bq	_	.	.	.	.	.	.
2c#	Bo-	.	.	.	.	.	.
=179	=179	=179	=179	=179	=179	=179	=179
8A	-jan	2.AM	.	voice	.	199.05	A:maj
8F#	_	.	.	.	.	.	.
[2E	gles	.	.	.	.	.	.
=180	=180	=180	=180	=180	=180	=180	=180
4E]	.	2.AM	.	voice	.	200.124	A:maj
4r	.	.	.	.	.	.	.
4r	.	.	.	.	.	.	.
=181	=181	=181	=181	=181	=181	=181	=181
2.r	.	2.Bm	newline	voice	.	201.199	B:min
=182	=182	=182	=182	=182	=182	=182	=182
8B	Mis-	2.Bm	.	voice	.	202.281	B:min
8~A	-ter	.	.	.	.	.	.
8Bq	_	.	.	.	.	.	.
2c#	Bo-	.	.	.	.	.	.
=183	=183	=183	=183	=183	=183	=183	=183
8A	-jan	2.AM	.	voice	.	203.363	A:maj
8F#	_	.	.	.	.	.	.
[2E	gles...	.	.	.	.	.	.
=184	=184	=184	=184	=184	=184	=184	=184
4E]	_	2.AM	.	voice	.	204.445	A:maj
4r	.	.	.	.	.	.	.
4r	.	.	.	.	.	.	.
=185	=185	=185	=185	=185	=185	=185	=185
2.r	.	2.Bm	newline	voice	.	205.527	B:min
=186	=186	=186	=186	=186	=186	=186	=186
8B	Mis-	2.Bm	.	voice	.	206.599	B:min
8~A	-ter	.	.	.	.	.	.
8Bq	_	.	.	.	.	.	.
2c#	Bo-	.	.	.	.	.	.
=187	=187	=187	=187	=187	=187	=187	=187
8A	-jan	2.AM	.	voice	.	207.671	A:maj
8F#	_	.	.	.	.	.	.
[2E	gles	.	.	.	.	.	.
=188	=188	=188	=188	=188	=188	=188	=188
4E]	.	2.AM	.	voice	.	208.743	A:maj
4r	.	.	.	.	.	.	.
4r	.	.	.	.	.	.	.
=189	=189	=189	=189	=189	=189	=189	=189
*>Letter>C	*>Letter>C	*>Letter>C	*>Letter>C	*>Letter>C	*>Letter>C	*>Letter>C	*>Letter>C
*>Label>Outro	*>Label>Outro	*>Label>Outro	*>Label>Outro	*>Label>Outro	*>Label>Outro	*>Label>Outro	*>Label>Outro
[2.D	dance	2.DM	newline	guitar	C	209.815	D:maj
=190	=190	=190	=190	=190	=190	=190	=190
4D]	_	2.DM	.	guitar	.	210.907	D:maj/7
4r	.	.	.	.	.	.	.
4r	.	.	.	.	.	.	.
=191	=191	=191	=191	=191	=191	=191	=191
2.r	.	2.DM	.	guitar	.	211.998	D:maj/6
=192	=192	=192	=192	=192	=192	=192	=192
2.r	.	2.DM	.	guitar	.	213.09	D:maj/5
=193	=193	=193	=193	=193	=193	=193	=193
2.r	.	2.Bm	newline	voice	.	NA	B:min
=194	=194	=194	=194	=194	=194	=194	=194
8B	Mis-	2.Bm	.	voice	.	.	B:min
8~A	-ter	.	.	.	.	.	.
8Bq	_	.	.	.	.	.	.
2c#	Bo-	.	.	.	.	.	.
=195	=195	=195	=195	=195	=195	=195	=195
8A	-jan	2.AM	.	voice	.	.	A:maj
8F#	_	.	.	.	.	.	.
2E	gles	.	.	.	.	.	.
=196	=196	=196	=196	=196	=196	=196	=196
2.r	.	2.AM	.	voice	.	.	A:maj
r;	.	1r;	.	r	.	.	N.C.
*-	*-	*-	*-	*-	*-	*-	*-
!!!BillboardChartDate: 1968/08/24
!!!BillboardPeak: 77
!!!BillboardWeeksOnChart: 5
!!!COC: Jerry Jeff Walker
!!!ENC: Nathaniel Condit-Schultz
!!!EST: Awating manual error checking and editing.
!!!OTL: Mr. Bojangles
!!!RDF**chordsym: original McGill chord annotation + (implied pitch class set, with bass pitch in first position)
!!!RDF**harmony: **recip + pitch class of root + harmonic quality
!!!RDF**leadinstrument: original McGill primary instrumentation annotation
!!!RDF**phrase: newline = linebreak in original McGill transcription
!!!RDF**timestamp: McGill audio timestamp in seconds
!!!RDT: 2017/01/12/
!!!SampleActualRank: 79
!!!SampleID#: 0294
!!!SampleTargetRank: 78
